X:1
T:The Locust Tree
C:Paul Rosen
S:Copyright 2004, Paul Rosen
M:4/4 
L:1/8
Q:120
R:playful, yet upright
K:A
"A"EAcBA2AB|cdefe2c2|EAcBA2fa|fec2"E"B4|
"A"EAcBA2AB|cdefe2c2|efec BAFA|"E"EcB2"A"A4:|
|:"D"f2a2d4|fedef4|"A"edc2edc2|faec"E"B4|
"A"A2cBA2cd|e2f2e4|efec BAFA|EcB2A4:|
